Newaita-dark/actions/16/media-album-track.svg

<svg height="16" viewBox="0 0 16 16" width="16" xmlns="http://www.w3.org/2000/svg"><g fill="#e0e0e0"><path d="m11.234375 4.082031c-.023437 0-.046875.003907-.070313.011719l-3.96875.992188c-.15625.035156-.261718.175781-.261718.332031v4.210937c-.273438-.152344-.613282-.242187-.980469-.242187-.914063 0-1.652344.558593-1.652344 1.253906v.136719c0 .695312.738281 1.253906 1.652344 1.253906.917969 0 1.65625-.558594 1.65625-1.253906v-.066406h.011719v-5.027344l3.28125-.820313v3.113281c-.273438-.152343-.613282-.242187-.980469-.242187-.914063 0-1.652344.558594-1.652344 1.253906v.136719c0 .695312.738281 1.253906 1.652344 1.253906.917969 0 1.65625-.558594 1.65625-1.253906v-.070312h.011719v-4.628907c0-.09375-.039063-.183593-.105469-.246093-.066406-.066407-.15625-.101563-.25-.097657zm-1.3125 4.3125c.496094 0 .90625.238281.980469.554688v.105469h.011718c0 .367187-.441406.664062-.992187.664062-.546875 0-.992187-.296875-.992187-.664062 0-.367188.445312-.660157.992187-.660157zm-3.96875 1.652344c.496094 0 .90625.242187.980469.558594v.105469h.011718c0 .363281-.441406.660156-.992187.660156s-.992187-.296875-.992187-.660156c0-.367188.441406-.664063.992187-.664063zm0 0"/><path d="m2.644531 1.449219c-.730469 0-1.320312.589843-1.320312 1.320312v10.585938c0 .734375.589843 1.324219 1.320312 1.324219h10.585938c.734375 0 1.324219-.589844 1.324219-1.324219v-10.585938c0-.730469-.589844-1.320312-1.324219-1.320312zm.664063 1.320312h9.261718c.363282 0 .660157.296875.660157.664063v9.261718c0 .363282-.296875.660157-.660157.660157h-9.261718c-.367188 0-.664063-.296875-.664063-.660157v-9.261718c0-.367188.296875-.664063.664063-.664063zm0 0"/></g></svg>

<?xml version="1.0" encoding="UTF-8"?>
<svg xmlns="http://www.w3.org/2000/svg" xmlns:xlink="http://www.w3.org/1999/xlink" width="16px" height="16px" viewBox="0 0 16 16" version="1.1">
<g id="surface1">
<path style=" stroke:none;fill-rule:nonzero;fill:rgb(87.843138%,87.843138%,87.843138%);fill-opacity:1;" d="M 11.234375 4.082031 C 11.210938 4.082031 11.1875 4.085938 11.164062 4.09375 L 7.195312 5.085938 C 7.039062 5.121094 6.933594 5.261719 6.933594 5.417969 L 6.933594 9.628906 C 6.660156 9.476562 6.320312 9.386719 5.953125 9.386719 C 5.039062 9.386719 4.300781 9.945312 4.300781 10.640625 L 4.300781 10.777344 C 4.300781 11.472656 5.039062 12.03125 5.953125 12.03125 C 6.871094 12.03125 7.609375 11.472656 7.609375 10.777344 L 7.609375 10.710938 L 7.621094 10.710938 L 7.621094 5.683594 L 10.902344 4.863281 L 10.902344 7.976562 C 10.628906 7.824219 10.289062 7.734375 9.921875 7.734375 C 9.007812 7.734375 8.269531 8.292969 8.269531 8.988281 L 8.269531 9.125 C 8.269531 9.820312 9.007812 10.378906 9.921875 10.378906 C 10.839844 10.378906 11.578125 9.820312 11.578125 9.125 L 11.578125 9.054688 L 11.589844 9.054688 L 11.589844 4.425781 C 11.589844 4.332031 11.550781 4.242188 11.484375 4.179688 C 11.417969 4.113281 11.328125 4.078125 11.234375 4.082031 Z M 9.921875 8.394531 C 10.417969 8.394531 10.828125 8.632812 10.902344 8.949219 L 10.902344 9.054688 L 10.914062 9.054688 C 10.914062 9.421875 10.472656 9.71875 9.921875 9.71875 C 9.375 9.71875 8.929688 9.421875 8.929688 9.054688 C 8.929688 8.6875 9.375 8.394531 9.921875 8.394531 Z M 5.953125 10.046875 C 6.449219 10.046875 6.859375 10.289062 6.933594 10.605469 L 6.933594 10.710938 L 6.945312 10.710938 C 6.945312 11.074219 6.503906 11.371094 5.953125 11.371094 C 5.402344 11.371094 4.960938 11.074219 4.960938 10.710938 C 4.960938 10.34375 5.402344 10.046875 5.953125 10.046875 Z M 5.953125 10.046875 "/>
<path style=" stroke:none;fill-rule:nonzero;fill:rgb(87.843138%,87.843138%,87.843138%);fill-opacity:1;" d="M 2.644531 1.449219 C 1.914062 1.449219 1.324219 2.039062 1.324219 2.769531 L 1.324219 13.355469 C 1.324219 14.089844 1.914062 14.679688 2.644531 14.679688 L 13.230469 14.679688 C 13.964844 14.679688 14.554688 14.089844 14.554688 13.355469 L 14.554688 2.769531 C 14.554688 2.039062 13.964844 1.449219 13.230469 1.449219 Z M 3.308594 2.769531 L 12.570312 2.769531 C 12.933594 2.769531 13.230469 3.066406 13.230469 3.433594 L 13.230469 12.695312 C 13.230469 13.058594 12.933594 13.355469 12.570312 13.355469 L 3.308594 13.355469 C 2.941406 13.355469 2.644531 13.058594 2.644531 12.695312 L 2.644531 3.433594 C 2.644531 3.066406 2.941406 2.769531 3.308594 2.769531 Z M 3.308594 2.769531 "/>
</g>
</svg>
